icons/no-alt.svg

<svg xmlns="http://www.w3.org/2000/svg" width="24" height="24" viewBox="0 0 24 24">
  <path d="M12,2 C17.5228475,2 22,6.4771525 22,12 C22,17.5228475 17.5228475,22 12,22 C6.4771525,22 2,17.5228475 2,12 C2,6.4771525 6.4771525,2 12,2 Z M6.15620988,6.53687671 L6.10267808,6.5942305 C4.79692996,8.01794617 4,9.9159066 4,12 C4,16.418278 7.581722,20 12,20 C13.5916458,20 15.0747285,19.5351866 16.3209123,18.7338959 C16.3193557,18.7327627 16.3187114,18.7321621 16.3180676,18.7315605 L16.2317787,18.6401844 L6.23177872,6.6401844 C6.20407312,6.60693768 6.17889056,6.57242427 6.15620988,6.53687671 Z M12,4 C10.4083542,4 8.92527146,4.46481339 7.67908775,5.2661041 C7.68064427,5.26723734 7.68128864,5.26783793 7.68193237,5.2684395 L7.76822128,5.3598156 L17.7682213,17.3598156 C17.7959269,17.3930623 17.8211094,17.4275757 17.8437901,17.4631233 C19.1810397,16.0341284 20,14.1127034 20,12 C20,7.581722 16.418278,4 12,4 Z"/>
</svg>

<svg xmlns="http://www.w3.org/2000/svg" viewBox="0 0 24 24">
  <path d="M12 2a10 10 0 1 1 0 20 10 10 0 0 1 0-20zM6.16 6.54l-.06.05a8 8 0 0 0 10.22 12.14l-.09-.09-10-12a1.01 1.01 0 0 1-.07-.1zM12 4a7.96 7.96 0 0 0-4.32 1.27l.09.09 10 12 .07.1A8 8 0 0 0 12 4z"/>
</svg>
